build/images/instagram-icon.svg

<?xml version="1.0" encoding="UTF-8"?>
<svg xmlns="http://www.w3.org/2000/svg" xmlns:xlink="http://www.w3.org/1999/xlink" width="40pt" height="40pt" viewBox="0 0 40 40" version="1.1">
<g id="surface1">
<path style=" stroke:none;fill-rule:evenodd;fill:rgb(0%,0%,0%);fill-opacity:1;" d="M 26.859375 9.167969 L 13.140625 9.167969 C 10.949219 9.167969 9.167969 10.949219 9.167969 13.140625 L 9.167969 26.859375 C 9.167969 29.050781 10.949219 30.832031 13.140625 30.832031 L 26.859375 30.832031 C 29.050781 30.832031 30.832031 29.050781 30.832031 26.859375 L 30.832031 13.140625 C 30.832031 10.949219 29.050781 9.167969 26.859375 9.167969 Z M 20 27.132812 C 16.066406 27.132812 12.867188 23.933594 12.867188 20 C 12.867188 16.066406 16.066406 12.867188 20 12.867188 C 23.933594 12.867188 27.132812 16.066406 27.132812 20 C 27.132812 23.933594 23.933594 27.132812 20 27.132812 Z M 27.359375 14.34375 C 26.429688 14.34375 25.671875 13.585938 25.671875 12.65625 C 25.671875 11.726562 26.429688 10.96875 27.359375 10.96875 C 28.289062 10.96875 29.046875 11.726562 29.046875 12.65625 C 29.046875 13.585938 28.289062 14.34375 27.359375 14.34375 Z M 27.359375 14.34375 "/>
<path style=" stroke:none;fill-rule:evenodd;fill:rgb(0%,0%,0%);fill-opacity:1;" d="M 20 15.882812 C 17.730469 15.882812 15.882812 17.730469 15.882812 20 C 15.882812 22.269531 17.730469 24.117188 20 24.117188 C 22.269531 24.117188 24.117188 22.269531 24.117188 20 C 24.117188 17.730469 22.269531 15.882812 20 15.882812 Z M 20 15.882812 "/>
<path style=" stroke:none;fill-rule:evenodd;fill:rgb(0%,0%,0%);fill-opacity:1;" d="M 0 0 L 0 40 L 40 40 L 40 0 Z M 33.84375 26.859375 C 33.84375 30.710938 30.710938 33.84375 26.859375 33.84375 L 13.140625 33.84375 C 9.289062 33.84375 6.15625 30.710938 6.15625 26.859375 L 6.15625 13.140625 C 6.15625 9.289062 9.289062 6.15625 13.140625 6.15625 L 26.859375 6.15625 C 30.710938 6.15625 33.84375 9.289062 33.84375 13.140625 Z M 33.84375 26.859375 "/>
</g>
</svg>

<svg xmlns="http://www.w3.org/2000/svg" width="40pt" height="40pt" viewBox="0 0 40 40"><g fill-rule="evenodd"><path d="M26.86 9.168H13.14a3.976 3.976 0 00-3.972 3.973v13.718a3.976 3.976 0 003.973 3.973h13.718a3.976 3.976 0 003.973-3.973V13.141a3.976 3.976 0 00-3.973-3.973zM20 27.133A7.14 7.14 0 0112.867 20 7.14 7.14 0 0120 12.867 7.14 7.14 0 0127.133 20 7.14 7.14 0 0120 27.133zm7.36-12.79a1.69 1.69 0 01-1.688-1.687c0-.93.758-1.687 1.687-1.687.93 0 1.688.758 1.688 1.687a1.69 1.69 0 01-1.688 1.688zm0 0"/><path d="M20 15.883A4.123 4.123 0 0015.883 20 4.123 4.123 0 0020 24.117 4.123 4.123 0 0024.117 20 4.123 4.123 0 0020 15.883zm0 0"/><path d="M0 0v40h40V0zm33.844 26.86a6.992 6.992 0 01-6.985 6.984H13.141a6.992 6.992 0 01-6.985-6.985V13.141a6.992 6.992 0 016.985-6.985h13.718a6.992 6.992 0 016.985 6.985zm0 0"/></g></svg>
